X:1
T:Parabéns a Você
T:#45. A.
T: Oscar Beringer
T:youtube.com/dicionarioderitmo
T:smdjacklima.com.br
T:Editora SMD
T:Editora SMD
T:Editora SMD
T:Editora SMD
C:Canção tradicional
Z:Musescore: Prof. Jack Lima
Z:Editora SMD
%%score { 1 | 2 }
L:1/8
Q:1/4=60
M:2/4
K:C
V:1 treble nm="Piano" snm="Pno"
V:2 bass 
V:1
"C"!p! G/4E/4F/4E/4F/4D/4E/4D/4 E/4C/4D/4C/4F/4D/4E/4D/4 | %1
"Cm" G/4_E/4F/4E/4F/4D/4E/4D/4 E/4C/4D/4C/4F/4D/4E/4D/4 | %2
"Ab7" _G/4_E/4F/4E/4F/4_D/4E/4D/4 E/4C/4D/4C/4F/4D/4E/4D/4 | %3
"Db" _A/4F/4_G/4F/4G/4_E/4F/4E/4 F/4_D/4E/4D/4G/4E/4F/4E/4 | %4
"C#m" ^G/4E/4^F/4E/4F/4^D/4E/4D/4 E/4^C/4D/4C/4F/4D/4E/4D/4 | %5
"A7" G/4E/4^F/4E/4F/4D/4E/4D/4 E/4^C/4D/4C/4F/4D/4E/4D/4 | %6
"D" A/4^F/4G/4F/4G/4E/4F/4E/4 F/4D/4E/4D/4G/4E/4F/4E/4 | %7
"Dm" A/4F/4G/4F/4G/4E/4F/4E/4 F/4D/4E/4D/4G/4E/4F/4E/4 | %8
"Bb7" _A/4F/4G/4F/4G/4_E/4F/4E/4 F/4D/4E/4D/4G/4E/4F/4E/4 | %9
"Eb" _B/4G/4_A/4G/4A/4F/4G/4F/4 G/4_E/4F/4E/4A/4F/4G/4F/4 | %10
"Ebm" _B/4_G/4_A/4G/4A/4F/4G/4F/4 G/4_E/4F/4E/4A/4F/4G/4F/4 | %11
"B7" A/4^F/4^G/4F/4G/4E/4F/4E/4 F/4^D/4E/4D/4G/4E/4F/4E/4 | %12
"E" B/4^G/4A/4G/4A/4^F/4G/4F/4 G/4E/4F/4E/4A/4F/4G/4F/4 | %13
"Em" B/4G/4A/4G/4A/4^F/4G/4F/4 G/4E/4F/4E/4A/4F/4G/4F/4 | %14
"C7" _B/4G/4A/4G/4A/4F/4G/4F/4 G/4E/4F/4E/4A/4F/4G/4F/4 | %15
"F" c/4A/4_B/4A/4B/4G/4A/4G/4 A/4F/4G/4F/4B/4G/4A/4G/4 | %16
"Fm" c/4_A/4_B/4A/4B/4G/4A/4G/4 A/4F/4G/4F/4B/4G/4A/4G/4 | %17
"Db7" _c/4_A/4_B/4A/4B/4_G/4A/4G/4 A/4F/4G/4F/4B/4G/4A/4G/4 | %18
"Gb" _d/4_B/4_c/4B/4c/4_A/4B/4A/4 B/4_G/4A/4G/4c/4A/4B/4A/4 | %19
"F#m" ^c/4A/4B/4A/4B/4^G/4A/4G/4 A/4^F/4G/4F/4B/4G/4A/4G/4 | %20
"D7" c/4A/4B/4A/4B/4G/4A/4G/4 A/4^F/4G/4F/4B/4G/4A/4G/4 | %21
"G" d/4B/4c/4B/4c/4A/4B/4A/4 B/4G/4A/4G/4c/4A/4B/4A/4 | %22
"Gm" d/4_B/4c/4B/4c/4A/4B/4A/4 B/4G/4A/4G/4c/4A/4B/4A/4 | %23
"Eb7" _d/4_B/4c/4B/4c/4_A/4B/4A/4 B/4G/4A/4G/4c/4A/4B/4A/4 | %24
"Ab" _e/4c/4_d/4c/4d/4_B/4c/4B/4 c/4_A/4B/4A/4d/4B/4c/4B/4 | %25
"G#m" ^d/4B/4^c/4B/4c/4^A/4B/4A/4 B/4^G/4A/4G/4c/4A/4B/4A/4 | %26
"E7" d/4B/4^c/4B/4c/4A/4B/4A/4 B/4^G/4A/4G/4c/4A/4B/4A/4 | %27
"A" e/4^c/4d/4c/4d/4B/4c/4B/4 c/4A/4B/4A/4d/4B/4c/4B/4 | %28
"Am" e/4c/4d/4c/4d/4B/4c/4B/4 c/4A/4B/4A/4d/4B/4c/4B/4 | %29
"F7" _e/4c/4d/4c/4d/4_B/4c/4B/4 c/4A/4B/4A/4d/4B/4c/4B/4 | %30
"Bb" f/4d/4_e/4d/4e/4c/4d/4c/4 d/4_B/4c/4B/4e/4c/4d/4c/4 | %31
"Bbm" f/4_d/4_e/4d/4e/4c/4d/4c/4 d/4_B/4c/4B/4e/4c/4d/4c/4 | %32
"F#7" e/4^c/4^d/4c/4d/4B/4c/4B/4 c/4^A/4B/4A/4d/4B/4c/4B/4 | %33
"B" ^f/4^d/4e/4d/4e/4^c/4d/4c/4 d/4B/4c/4B/4e/4c/4d/4c/4 | %34
"Bm" ^f/4d/4e/4d/4e/4^c/4d/4c/4 d/4B/4c/4B/4e/4c/4d/4c/4 | %35
"G7" f/4d/4e/4d/4e/4c/4d/4c/4 d/4B/4c/4B/4e/4c/4d/4c/4 |"C" g2- g2 :| %37
V:2
 C,/4E,/4D,/4E,/4D,/4F,/4E,/4F,/4 E,/4G,/4F,/4G,/4D,/4F,/4E,/4F,/4 | %1
 C,/4_E,/4D,/4E,/4D,/4F,/4E,/4F,/4 E,/4G,/4F,/4G,/4D,/4F,/4E,/4F,/4 | %2
 C,/4_E,/4_D,/4E,/4D,/4F,/4E,/4F,/4 E,/4_G,/4F,/4G,/4D,/4F,/4E,/4F,/4 | %3
 _D,/4F,/4_E,/4F,/4E,/4_G,/4F,/4G,/4 F,/4_A,/4G,/4A,/4E,/4G,/4F,/4G,/4 | %4
 ^C,/4E,/4^D,/4E,/4D,/4^F,/4E,/4F,/4 E,/4^G,/4F,/4G,/4D,/4F,/4E,/4F,/4 | %5
 ^C,/4E,/4D,/4E,/4D,/4^F,/4E,/4F,/4 E,/4G,/4F,/4G,/4D,/4F,/4E,/4F,/4 | %6
 D,/4^F,/4E,/4F,/4E,/4G,/4F,/4G,/4 F,/4A,/4G,/4A,/4E,/4G,/4F,/4G,/4 | %7
 D,/4F,/4E,/4F,/4E,/4G,/4F,/4G,/4 F,/4A,/4G,/4A,/4E,/4G,/4F,/4G,/4 | %8
 D,/4F,/4_E,/4F,/4E,/4G,/4F,/4G,/4 F,/4_A,/4G,/4A,/4E,/4G,/4F,/4G,/4 | %9
 _E,/4G,/4F,/4G,/4F,/4_A,/4G,/4A,/4 G,/4_B,/4A,/4B,/4F,/4A,/4G,/4A,/4 | %10
 _E,/4_G,/4F,/4G,/4F,/4_A,/4G,/4A,/4 G,/4_B,/4A,/4B,/4F,/4A,/4G,/4A,/4 | %11
 ^D,/4^F,/4E,/4F,/4E,/4^G,/4F,/4G,/4 F,/4A,/4G,/4A,/4E,/4G,/4F,/4G,/4 | %12
 E,/4^G,/4^F,/4G,/4F,/4A,/4G,/4A,/4 G,/4B,/4A,/4B,/4F,/4A,/4G,/4A,/4 | %13
 E,/4G,/4^F,/4G,/4F,/4A,/4G,/4A,/4 G,/4B,/4A,/4B,/4F,/4A,/4G,/4A,/4 | %14
 E,/4G,/4F,/4G,/4F,/4A,/4G,/4A,/4 G,/4_B,/4A,/4B,/4F,/4A,/4G,/4A,/4 | %15
 F,/4A,/4G,/4A,/4G,/4_B,/4A,/4B,/4 A,/4C/4B,/4C/4G,/4B,/4A,/4B,/4 | %16
 F,/4_A,/4G,/4A,/4G,/4_B,/4A,/4B,/4 A,/4C/4B,/4C/4G,/4B,/4A,/4B,/4 | %17
 F,/4_A,/4_G,/4A,/4G,/4_B,/4A,/4B,/4 A,/4_C/4B,/4C/4G,/4B,/4A,/4B,/4 | %18
 _G,/4_B,/4_A,/4B,/4A,/4_C/4B,/4C/4 B,/4_D/4C/4D/4A,/4C/4B,/4C/4 | %19
 ^F,/4A,/4^G,/4A,/4G,/4B,/4A,/4B,/4 A,/4^C/4B,/4C/4G,/4B,/4A,/4B,/4 | %20
 ^F,/4A,/4G,/4A,/4G,/4B,/4A,/4B,/4 A,/4C/4B,/4C/4G,/4B,/4A,/4B,/4 | %21
 G,/4B,/4A,/4B,/4A,/4C/4B,/4C/4 B,/4D/4C/4D/4A,/4C/4B,/4C/4 | %22
 G,/4_B,/4A,/4B,/4A,/4C/4B,/4C/4 B,/4D/4C/4D/4A,/4C/4B,/4C/4 | %23
 G,/4_B,/4_A,/4B,/4A,/4C/4B,/4C/4 B,/4_D/4C/4D/4A,/4C/4B,/4C/4 | %24
 _A,/4C/4_B,/4C/4B,/4_D/4C/4D/4 C/4_E/4D/4E/4B,/4D/4C/4D/4 | %25
 ^G,/4B,/4^A,/4B,/4A,/4^C/4B,/4C/4 B,/4^D/4C/4D/4A,/4C/4B,/4C/4 | %26
 ^G,/4B,/4A,/4B,/4A,/4^C/4B,/4C/4 B,/4D/4C/4D/4A,/4C/4B,/4C/4 | %27
 A,/4^C/4B,/4C/4B,/4D/4C/4D/4 C/4E/4D/4E/4B,/4D/4C/4D/4 | %28
 A,/4C/4B,/4C/4B,/4D/4C/4D/4 C/4E/4D/4E/4B,/4D/4C/4D/4 | %29
 A,/4C/4_B,/4C/4B,/4D/4C/4D/4 C/4_E/4D/4E/4B,/4D/4C/4D/4 | %30
 _B,/4D/4C/4D/4C/4_E/4D/4E/4 D/4F/4E/4F/4C/4E/4D/4E/4 | %31
 _B,/4_D/4C/4D/4C/4_E/4D/4E/4 D/4F/4E/4F/4C/4E/4D/4E/4 | %32
 ^A,/4^C/4B,/4C/4B,/4^D/4C/4D/4 C/4E/4D/4E/4B,/4D/4C/4D/4 | %33
 B,/4^D/4^C/4D/4C/4E/4D/4E/4 D/4^F/4E/4F/4C/4E/4D/4E/4 | %34
 B,/4D/4^C/4D/4C/4E/4D/4E/4 D/4^F/4E/4F/4C/4E/4D/4E/4 | %35
 B,/4D/4C/4D/4C/4E/4D/4E/4 D/4F/4E/4F/4C/4E/4D/4E/4 | C2- C2 :| %37

